X:1
T:O Pobre E O Rico
T:O Pobre E O Rico
T:lição 08
T:Folclore
C:Folclore
L:1/8
Q:1/4=77
M:2/4
K:C
V:1 treble nm="Piano" snm="Pno."
V:1
 !1!C2 !2!E2 | !4!G2 !4!G2 | !4!G2 !5!A2 | !4!G2 !4!G2 | !3!F2 !2!E2 | !1!D2 !2!E2 | !3!F2 !1!D2 | %7
 !2!E4 | !1!C2 !2!E2 | !4!G2 !4!G2 | !4!G2 !5!A2 | !4!G2 !4!G2 | !3!F2 !2!E2 | !1!D4 | !4/5!G4 | %15
 !1!C4 |] %16

